UI/Discovery-Sharing/SVG/calendar_outline_24px.svg

<svg width="24" height="24" viewBox="0 0 24 24" fill="none" xmlns="http://www.w3.org/2000/svg">
<path d="M18 4V2H16V4H8V2H6V4H2V20C2 20.5304 2.21071 21.0391 2.58579 21.4142C2.96086 21.7893 3.46957 22 4 22H20C20.5304 22 21.0391 21.7893 21.4142 21.4142C21.7893 21.0391 22 20.5304 22 20V4H18ZM20 19.5C20 19.6326 19.9473 19.7598 19.8536 19.8536C19.7598 19.9473 19.6326 20 19.5 20H4.5C4.36739 20 4.24021 19.9473 4.14645 19.8536C4.05268 19.7598 4 19.6326 4 19.5V6H20V19.5ZM9 8H6V10H9V8ZM18 12H16V14H18V12ZM18 8H16V10H18V8ZM14 16H11V18H14V16ZM14 12H11V14H14V12ZM14 8H11V10H14V8ZM9 16H6V18H9V16ZM9 12H6V14H9V12Z" fill="#0F1621"/>
</svg>

<svg xmlns="http://www.w3.org/2000/svg" width="24" height="24" viewBox="0 0 24 24"><rect width="24" height="24" style="fill:none"/><path d="M18,4V2H16V4H8V2H6V4H2V20a2,2,0,0,0,2,2H20a2,2,0,0,0,2-2V4ZM20,19.5a.5.5,0,0,1-.5.5H4.5a.5.5,0,0,1-.5-.5V6H20ZM9,8H6v2H9Zm9,4H16v2h2Zm0-4H16v2h2Zm-4,8H11v2h3Zm0-4H11v2h3Zm0-4H11v2h3ZM9,16H6v2H9Zm0-4H6v2H9Z"/></svg>
